X:1
T:Title
%%score 1 { 2 | 3 }
L:1/8
M:3/4
K:Eb
V:1 treble nm="Grand Piano, Unnamed-000"
V:2 bass nm="Choir Pad, Unnamed-001"
V:3 bass 
V:1
 [EG]2 [EG]2 [DF]2 | E2 [CF]2 [DA]2 | [EG]2 [CG]F [B,E]2 | [DF]2 [DF]2 [EG]2 | [FB]2 [EB]2 A2 | %5
w: By~Samuel~Sebastian~Wesley,~1872 * *|||||
 [EG]2 [Ec]2 F2 | [GB]2 [CA]2 [FB]2 | [EG]2 [EG]2 [DF]2 | [FB]2 [Gc]2 F2 | c2 [FB]2 [Ee]d | %10
w: |||||
 [Ec]B [EB]2 AG | [DA]2 [DA]2 [EG]2 | [FB]2 [EB]2 E2 | [EA]2 [DA]2 GF | [EB]2 E>F G2 | %15
w: |||||
 [DF]2 [DF]2 E2- | E4 z2 |] %17
w: ||
V:2
 [E,B,]2 B,2 A,2 | G,2 C2 A,2 | B,2 B,A, G,2 | B,2 [E,B,]4 | [D,B,]2[K:treble] E4 | B,2 C2 D2 | %6
 E2 C2[K:bass] [D,B,]2 | E,2 B,4 | [B,D]2 [B,E]2[K:treble] [A,F]2 | E2 [A,D]2 [G,E]2 | %10
 E2[K:bass] [F,C]4 | B,2 [E,B,]4 | [D,B,]2 E4 | [F,C]2 B,4 | B,2 C2 B,2 | A,2 A,2 G,2- | G,4 z2 |] %17
V:3
 z2 B,,4 | C,2 A,,2 F,,2 | G,,2 A,,2 B,,2- | B,,2 z2 z2 | z2 C,4 | B,,2 A,,4 | G,,2 F,,2 z2 | %7
 z2 B,,4 | z6 | z6 | C,2 z2 z2 | B,,2 z2 z2 | z2 C,4 | z2 B,,2 A,,2 | G,,2 A,,2 B,,2 | z2 E,,4 | %16
 z6 |] %17

